jsapp/svg-icons/qt-note.svg

<svg height="642" viewBox="0 0 642 642" width="642" xmlns="http://www.w3.org/2000/svg"><path d="m113 196.81h416c8.836556 0 16-7.163444 16-16v-40c0-8.836556-7.163444-16-16-16h-416c-8.836556 0-16 7.163444-16 16v40c0 8.836556 7.163444 16 16 16zm0 160h416c8.836556 0 16-7.163444 16-16v-40c0-8.836556-7.163444-16-16-16h-416c-8.836556 0-16 7.163444-16 16v40c0 8.836556 7.163444 16 16 16zm0 160h416c8.836556 0 16-7.163444 16-16v-40c0-8.836556-7.163444-16-16-16h-416c-8.836556 0-16 7.163444-16 16v40c0 8.836556 7.163444 16 16 16z"/></svg>

<svg id="Layer_1" data-name="Layer 1" xmlns="http://www.w3.org/2000/svg" viewBox="0 0 642 642"><path d="M113,196.81H529a16,16,0,0,0,16-16v-40a16,16,0,0,0-16-16H113a16,16,0,0,0-16,16v40A16,16,0,0,0,113,196.81Zm0,160H529a16,16,0,0,0,16-16v-40a16,16,0,0,0-16-16H113a16,16,0,0,0-16,16v40A16,16,0,0,0,113,356.81Zm0,160H529a16,16,0,0,0,16-16v-40a16,16,0,0,0-16-16H113a16,16,0,0,0-16,16v40A16,16,0,0,0,113,516.81Z"/></svg>
